X:1
T:Bold Fenian Men (Glenside)
M:3/4
L:1/8
K:F
 z2 z2 A2| A2 D3 E| D2 C2D-E| F3 G A2| c A3 A2| A D3 E2| D C3D-E| F4 GA|\
 c A3 G2| A2 d3 d| d4 DE| F4 GF| E C3 DE| F4 GA| c4 AG| A2 D2 D2| D4 z2|\
